X: 130481
T: Marry When You're Young
S: "Treoir" / John Doherty
Z: B.Black
M: 4/4
L: 1/8
R: reel
K: D
F2 FD FEDE | Addc d2 (3ABc | d2 fd ecAF | GBAF GFED |
F2 FD FEDE | Addc dfeg | fdec dcAd | cAGE D4 ||
fded cAAg | fdec dfeg | fded cABd | cAGE D3 g |
fded cAAg | fdec dfeg | fded cABd | cAGE D4 ||
